X: 31217
T: Paddy Fahey's
R: jig
M: 6/8
K: Gdorian
C|:DGA BAG|A=Bc d^fa|g^fd =Bcd|cAG FDC|
DGA BAG|A=Bc d^fa|g^fd =Bcd|1 cA^F G2 =F:|2 cA^F G=Bd||
|:g2 d ^fga|g^fd =Bcd|cAc fcf|ag^f de^f|
g2 a bag|^fag ^fdc|ABG Adc|1 AG^F G=Bd:|2 AG^F G3||

